X:280
T:The Swallow's Trail
S:Dervish - Spirit
Z:robin.beech@mcgill.ca
R:reel
M:4/4
L:1/8
K:Ador
e3d eA (3AAA | eAef g3a | gedB dG (3GGG | BGB/c/d g2fg |
e3d eA (3AAA | eAef g3a | bagb aged | egdB ABcd ::
ea2a- aged | cdef g3a | gedB dG (3GGG | BGB/c/d g2gf |
ea2a- aged | cdef g3a | bagb aged | egdB ABcd :|
